icons/material/dangerous-24px.svg

<?xml version="1.0" encoding="UTF-8" standalone="no"?>
<svg
   height="24px"
   viewBox="0 0 24 24"
   width="24px"
   version="1.1"
   id="svg1"
   sodipodi:docname="dangerous-24px.svg"
   inkscape:version="1.4.2 (ebf0e94, 2025-05-08)"
   xmlns:inkscape="http://www.inkscape.org/namespaces/inkscape"
   xmlns:sodipodi="http://sodipodi.sourceforge.net/DTD/sodipodi-0.dtd"
   xmlns="http://www.w3.org/2000/svg"
   xmlns:svg="http://www.w3.org/2000/svg">
  <defs
     id="defs1" />
  <sodipodi:namedview
     id="namedview1"
     pagecolor="#ffffff"
     bordercolor="#666666"
     borderopacity="1.0"
     inkscape:showpageshadow="2"
     inkscape:pageopacity="0.0"
     inkscape:pagecheckerboard="0"
     inkscape:deskcolor="#d1d1d1"
     showgrid="true"
     inkscape:zoom="35.208025"
     inkscape:cx="8.5349859"
     inkscape:cy="10.636779"
     inkscape:window-width="2560"
     inkscape:window-height="1403"
     inkscape:window-x="0"
     inkscape:window-y="0"
     inkscape:window-maximized="1"
     inkscape:current-layer="svg1">
    <inkscape:grid
       id="grid1"
       units="px"
       originx="0"
       originy="0"
       spacingx="1"
       spacingy="1"
       empcolor="#0099e5"
       empopacity="0.30196078"
       color="#0099e5"
       opacity="0.14901961"
       empspacing="10"
       enabled="true"
       visible="true" />
  </sodipodi:namedview>
  <path
     d="M 8.249997,21 3,15.750003 V 8.249997 L 8.249997,3 h 7.500006 L 21,8.249997 v 7.500006 L 15.750003,21 Z m 0.9,-4.750002 L 12,13.400004 14.850003,16.249998 16.249998,14.850003 13.400004,12 16.249998,9.149997 14.850003,7.750002 12,10.599996 9.149997,7.750002 7.750002,9.149997 10.599996,12 7.750002,14.850003 Z m -0.04995,2.750004 h 5.799996 l 4.100004,-4.100004 V 9.100002 L 14.900043,4.999998 H 9.100047 L 5.000043,9.100002 v 5.799996 z M 12,12 Z"
     id="path1"
      />
</svg>

<?xml version="1.0" encoding="UTF-8"?><svg width="24px" height="24px" version="1.1" viewBox="0 0 24 24" xmlns="http://www.w3.org/2000/svg"><path d="m8.25 21-5.25-5.25v-7.5l5.25-5.25h7.5l5.25 5.25v7.5l-5.25 5.25zm0.9-4.75 2.85-2.85 2.85 2.85 1.4-1.4-2.85-2.85 2.85-2.85-1.4-1.4-2.85 2.85-2.85-2.85-1.4 1.4 2.85 2.85-2.85 2.85zm-0.04995 2.75h5.8l4.1-4.1v-5.8l-4.1-4.1h-5.8l-4.1 4.1v5.8z"/></svg>
